symbolic/16x16/mimetypes/application-x-blender.svg

<svg xmlns="http://www.w3.org/2000/svg" width="16" height="16" version="1.1">
 <path style="fill:#f4b43f" d="M 2.8008,1 C 2.3576,1 2,1.3576 2,1.8008 V 15.199 C 2,15.642 2.3576,16 2.8008,16 H 13.199 C 13.642,16 14,15.642 14,15.199 V 6 L 9,1 Z"/>
 <path style="fill:#ffdea2" d="M 14,6 9,1 V 5.1992 C 9,5.6424 9.358,6 9.801,6 Z"/>
 <path style="fill:#f4f4f7" d="M 6.8945312 6.03125 C 6.7675132 6.0454515 6.6469928 6.1085871 6.5605469 6.2167969 C 6.387655 6.4332164 6.4222524 6.74703 6.6386719 6.9199219 L 7.9882812 8 L 3.5 8 C 3.223 8 3 8.223 3 8.5 C 3 8.777 3.223 9 3.5 9 L 6.0507812 9 A 3.5 3.5 0 0 0 5.9199219 9.140625 L 3.2089844 11.09375 C 2.9842039 11.255623 2.9318774 11.566235 3.09375 11.791016 C 3.2556226 12.015796 3.5681881 12.068123 3.7929688 11.90625 L 5.0390625 11.007812 A 3.5 3.5 0 0 0 5 11.5 A 3.5 3.5 0 0 0 8.5 15 A 3.5 3.5 0 0 0 12 11.5 A 3.5 3.5 0 0 0 10.050781 8.3671875 L 7.2617188 6.1386719 C 7.1535089 6.0522259 7.0215495 6.0170485 6.8945312 6.03125 z M 8.5 9 A 2.5 2.5 0 0 1 11 11.5 A 2.5 2.5 0 0 1 8.5 14 A 2.5 2.5 0 0 1 6 11.5 A 2.5 2.5 0 0 1 8.5 9 z M 8.5 10 A 1.5 1.5 0 0 0 7 11.5 A 1.5 1.5 0 0 0 8.5 13 A 1.5 1.5 0 0 0 10 11.5 A 1.5 1.5 0 0 0 8.5 10 z"/>
</svg>

<svg xmlns="http://www.w3.org/2000/svg" width="16" height="16"><path style="fill:#f4b43f" d="M2.8 1a.8.8 0 0 0-.8.8V15.2a.8.8 0 0 0 .8.801H13.2a.8.8 0 0 0 .801-.801V6L9 1z"/><path style="fill:#ffdea2" d="M14 6 9 1v4.2a.8.8 0 0 0 .801.8z"/><path style="fill:#f4f4f7" d="M6.895 6.031a.5.5 0 0 0-.256.889L7.989 8H3.5a.499.499 0 1 0 0 1h2.55a3.5 3.5 0 0 0-.13.14l-2.711 1.954a.5.5 0 0 0 .584.813l1.246-.9A3.5 3.5 0 0 0 5 11.5 3.5 3.5 0 0 0 8.5 15a3.5 3.5 0 0 0 3.5-3.5 3.5 3.5 0 0 0-1.95-3.133L7.263 6.14a.498.498 0 0 0-.367-.108zM8.5 9a2.5 2.5 0 0 1 2.5 2.5A2.5 2.5 0 0 1 8.5 14 2.5 2.5 0 0 1 6 11.5 2.5 2.5 0 0 1 8.5 9zm0 1A1.5 1.5 0 0 0 7 11.5 1.5 1.5 0 0 0 8.5 13a1.5 1.5 0 0 0 1.5-1.5A1.5 1.5 0 0 0 8.5 10z"/></svg>
